X: 19381
T: Jack's The Lad
R: hornpipe
M: 4/4
K: Gmajor
gf|:g2G2G2dc|Bdgf gbag|a2A2A2ag|fed^cd2ef|
gfed edcB|cBAG GFED|EGFA GBAc|1 B2G2 G2gf:|2 B2G2 G2dc||
|:Bdgd Bdgd|e2c2c2ed|^ceae ^ceae|f2d2d2 B2|
c2 d2 edcB|cBAG GFED|EGFA GBAc|1 B2G2 G2dc:|2 B2G2 G2gf||

